X:1
T:New 113th, 88.88.88
T:New 113th, 88.88.88
T:William Hayes (1706-1777)
T:Public Domain Courtesy of the Cyber Hymnal™
C:William Hayes (1706-1777)
Z:Public Domain
Z:Courtesy of the Cyber Hymnal™
%%score ( 1 2 ) ( 3 4 )
L:1/8
Q:1/4=115
M:3/4
K:A
V:1 treble 
V:2 treble 
V:3 bass 
V:4 bass 
V:1
 [CA]2 | (G3 F) [B,E]2 | ([EA]2 [GB]2) [Ac]2 | (c2 B2) [FA]2 | (A2 G2) [EG]2 | %5
 ([EA]2 [DB]2) [Cc]2 | (B>c d2) [Ec]2 | ([DB]2 [B,A]2) [B,G]2 | [CA]4 [Ec]2 | [EB]4 [Cc]2 | %10
 [CA]4 [^EG]2 | ([FA]2 [CG]2) F2 | [^Ec]4 [EG]2 | [FA]4 [FA]2 | [EA]4 ([FA]>[GB]) | %15
 ([Ac]2 B2) z x3 | [EG]4 [EG]2 | (G2 A2) [EB]2 | E4 [DF]2 | (=G2 F2) [CE]2 | [DF]4 [FB]2 | %21
 [EG]4 [EA]2 | (F2 [Gd]2) [Ac]2 | ([FB]2 [EA]2) [EG]2 | [EA]4 |] %25
V:2
 x2 | D4 x2 | x6 | F4 x2 | E4 x2 | x6 | E4 x2 | x6 | x6 | x6 | x6 | x4 F2 | x6 | x6 | x6 | %15
 x2 E3 (A2 ^D) | x6 | E4 x2 | E4 x2 | D4 x2 | x6 | x6 | F2 x4 | x6 | x4 |] %25
V:3
 [A,,E,]2 | [B,,E,]4 [D,G,]2 | ([C,A,]2 [B,,D]2) [A,,E]2 | [D,D]4 [B,,D]2 | [E,B,]4 [D,B,]2 | %5
 ([C,A,]2 [B,,G,]2) [A,,A,]2 | [G,,B,]4 [A,,A,]2 | [D,F,]4 [E,B,]2 | [A,,A,]4 A,2 | %9
 [G,B,]4 [^E,G,]2 | F,4 [C,C]2 | C4 (CB,) | [C,G,]4 [C,C]2 | [F,C]4 [D,D]2 | [C,A,]4 [B,,D]2 | %15
 E4 [F,A,]2 x2 | [E,B,]4 [E,B,]2 | [E,B,]4 [D,G,]2 | [C,A,]4 [D,D]2 | [E,B,]4 [A,,C]2 | %20
 [D,A,]4 [D,B,]2 | [D,B,]4 [C,E]2 | D4 [A,,E]2 | ([D,D]2 [E,C]2) [E,B,]2 | [A,,C]4 |] %25
V:4
 x2 | x6 | x6 | x6 | x6 | x6 | x6 | x6 | x4 A,2 | x6 | F,4 x2 | (F,2 E,2) D,2 | x6 | x6 | x6 | %15
 (A,,A, G,2) x4 | x6 | x6 | x6 | x6 | x6 | x6 | (C,2 B,,2) x2 | x6 | x4 |] %25

